!!!!SEGMENT: pl-kk--kk-i-382--012-001_anonim--nro-4-kyrie.krn
!!!cenid: 18xx:1473
!!!COM: Anonim
!!!COM-rismID: pe30004985
!!!CDT:
!!!CNT:
!!!OPR: Nro 4
!!!OTL: Kyrie
!!!OMV: 002
!!!PDT:
!!!AGN: Sacred
!!!SMS-siglum: PL-Kk
!!!SMS-shelfmark: Kk.I.382
!!!SMS-shelfwork: 004-002 M
!!!SMS-variant:
!!!SMS-altvar:
!!!NIFC-rismSourceID: 1001139027
!!!NIFC-rismChildID: 1001139095
!!!NIFC-islandoraID: pl-kk:6162
!!!URL-pdf-islandora: https://repozytorium.nifc.pl/islandora/object/pl-kk%3A6162/datastream/PDF/view
!!!URL-scan: https://polish.musicsources.pl/pl/lokalizacje/galeria/rekopisy/5994 @EN{Scan on Polish Music Sources Website} @PL{Skany w portalu Dziedzictwo Muzyki Polskiej w otwartym dostępie}
!!!IIIF:
!!!ONB-nifc: UWAGA: obsada: S/T 1, T 2, A/B 1, B 2. Kyrie + Christe. Skan 0011-0012, ,0083, 0156, 0228
!!!AIN: 1 alto 1 bass 2 tenor
!!!key:
**kern	**text	**dynam	**kern	**text	**kern	**text	**kern	**text
*part4	*part4	*part4	*part3	*part3	*part2	*part2	*part1	*part1
*staff4	*staff4	*	*staff3	*staff3	*staff2	*staff2	*staff1	*staff1
*Ibass	*	*	*Itenor	*	*Ialto	*	*Itenor	*
*I"Basso II	*	*	*I"Tenore II	*	*I"Alto vel Basso I	*	*I"Soprano vel Tenore I.	*
*I'B 2	*	*	*I'T 2	*	*I'A/B 1	*	*I'S/T 1	*
*group1	*	*	*group1	*	*group1	*	*group1	*
*clefF4	*	*	*clefC4	*	*clefC3	*	*clefC1	*
*k[]	*	*	*k[]	*	*k[]	*	*k[]	*
*C:	*	*	*C:	*	*C:	*	*C:	*
*M4/4	*	*	*M4/4	*	*M4/4	*	*M4/4	*
*met(c)	*	*	*met(c)	*	*met(c)	*	*met(c)	*
=1	=1	=1	=1	=1	=1	=1	=1	=1
*2\right	*	*	*2\right	*	*2\right	*	*2\right	*
!LO:TX:a:t=P:global:problem=metrum C z kropką w środku	!	!	!LO:TX:a:t=P:global:problem=metrum C z kropką w środku	!	!LO:TX:a:t=P:problem=metrum C z kropką w środku	!	!LO:TX:a:t=P:global:problem=metrum C z kropką w środku	!
!LO:TX:t=Kyrie	!	!	!LO:TX:t=Kyrie	!	!LO:TX:t=Kyrie	!	!LO:TX:t=Kyrie	!
!LO:TX:a:t=adagio	!	!	!LO:TX:t=P:problem=all\right&colon; global	!	!LO:TX:t=P:problem=all\right&colon; global	!	!LO:TX:t=P:problem=all\right&colon; global	!
!LO:TX:a:t=in C.	!	!	!LO:TX:a:t=adagio	!	!LO:TX:a:t=adagio.	!	!LO:TX:a:t=adagio	!
!LO:TX:t=P:problem=all\right&colon; global	!	!	!	!	!	!	!	!
(4C/	Ky-	.	2.c\	Ky-	2.g\	Ky-	2.ee\	Ky-
4E/)	.	.	.	.	.	.	.	.
(4G\	-ri-	.	.	.	.	.	.	.
4E\)	.	.	4c\	-ri-	4g\	-ri-	4ee\	-ri-
=2	=2	=2	=2	=2	=2	=2	=2	=2
2.C/	-e	.	2.c\	-e	2g\	-e	2.ee\	-e
.	.	.	.	.	2r	.	.	.
4r	.	.	4r	.	.	.	4r	.
=3	=3	=3	=3	=3	=3	=3	=3	=3
(4G\	Ky-	.	2.B\	Ky-	2.g\	Ky-	2.dd\	Ky-
4B\)	.	.	.	.	.	.	.	.
(4d\	-ri-	.	.	.	.	.	.	.
4B\)	.	.	4B\	-ri-	4g\	-ri-	4dd\	-ri-
=4	=4	=4	=4	=4	=4	=4	=4	=4
2G\	-e	.	4B\	-e	4g\	-e	4dd\	-e
.	.	.	4G/	e-	4r	.	(4g\	e-
4r	.	.	4c\	-lei-	4r	.	4cc\	.
4C/	e-	.	4c\	-son	4g\	e-	4ee-X\)	.
=5	=5	=5	=5	=5	=5	=5	=5	=5
(8C\L	-le-	.	2c\	e-	(2g\	-le-	2ee-X\	-le-
8D\	.	.	.	.	.	.	.	.
8E-X\	.	.	.	.	.	.	.	.
8C\J)	.	.	.	.	.	.	.	.
(4F\	.	.	4B\	-le-	4f\)	.	(4dd\	-i-
4F#X\)	-i-	.	4c\	-i-	4e-X\	-i-	4cc\)	.
=6	=6	=6	=6	=6	=6	=6	=6	=6
1G	-son.	.	1B;	-son.	1d;	-son.	1b;	-son,
!LO:LB:g=original	!	!	!LO:LB:g=original	!	!LO:LB:g=original	!	!LO:LB:g=original	!
==7	==7	==7	==7	==7	==7	==7	==7	==7
*M4/4	*	*	*M4/4	*	*M4/4	*	*M4/4	*
*met(c)	*	*	*met(c)	*	*met(c|)	*	*met(c)	*
!	!	!	!LO:TX:a:t=P:problem=metrum C przekreślone z kropką w środku	!	!LO:TX:a:t=P:problem=metrum C przekreślone z kropką w środku	!	!	!
!	!	!	!	!	!LO:TX:t=P:problem=alla breve	!	!	!
!LO:TX:t=P:problem=alla breve	!	!	!LO:TX:a:t=allegro.	!	!LO:TX:a:t=allegro.	!	!LO:TX:a:t=allegro.	!
2c\	Ky-	.	2c\	Ky-	2g\	Ky-	2ee\	Ky-
2G\	-ri-	.	2B\	-ri-	2f\	-ri-	2dd\	-ri-
=8	=8	=8	=8	=8	=8	=8	=8	=8
2C/	-e	.	2G/	-e	2e\	-e	2cc\	-e
(4G\	e-	.	(4B\	e-	(4f\	e-	(4dd\	e-
4C/)	.	.	4c\)	.	4g\)	.	4ee\)	.
=9	=9	=9	=9	=9	=9	=9	=9	=9
1G	-lei-	.	2B\	-le-	2f\	-le-	2dd\	-le-
.	.	.	2G/	-i-	2d\	-i-	2b\	-i-
=10	=10	=10	=10	=10	=10	=10	=10	=10
4C/	-son	.	4G/	-son	4e\	-son	4cc\	-son
4r	.	.	4G/	e-	4e\	e-	4cc\	e-
2r	.	.	2G/	-lei-	4d\	-le-	4b\	-le-
.	.	.	.	.	4e\	-i-	4cc\	-i-
=11	=11	=11	=11	=11	=11	=11	=11	=11
2r	.	.	2B\	-son	2f\	-son	2dd\	-son
4G\	Ky-	.	4B\	Ky-	4g\	Ky-	4dd\	Ky-
4G\	-ri-	.	4B\	-ri-	4g\	-ri-	4dd\	-ri-
=12	=12	=12	=12	=12	=12	=12	=12	=12
2c\	-e	.	2c\	-e	2g\	-e	2ee\	-e
(4G\	e-	.	(4B\	e-	(4f\	e-	(4dd\	e-
4E\)	.	.	4c\)	.	4e\)	.	4cc\)	.
!	!	!	!	!	!	!	!LO:LB:g=original	!
=13	=13	=13	=13	=13	=13	=13	=13	=13
[1G	-le-	.	1G	-le-	(2d\	-le-	(2b\	-le-
.	.	.	.	.	2e\)	.	2cc\	.
!	!	!	!	!	!LO:LB:g=original	!	!	!
=14	=14	=14	=14	=14	=14	=14	=14	=14
2G\]	.	.	1d	-i-	(2d\	-i-	2b\)	.
2D/	-i-	.	.	.	2c\)	.	2a\	-i-
=15	=15	=15	=15	=15	=15	=15	=15	=15
2GG/	-son.	.	2d\	-son	2B/	-son	2g\	-son
2r	.	.	2G/	e-	2r	.	2g\	e-
!	!	!	!LO:LB:g=original	!	!	!	!	!
=16	=16	=16	=16	=16	=16	=16	=16	=16
!LO:TX:a:t=5.	!	!	!	!	!LO:TX:a:t=1.	!	!	!
00r	.	.	2g\	-le-	1r	.	2gg\	-le-
.	.	.	2f\	-i-	.	.	2ff\	-i-
=17	=17	=17	=17	=17	=17	=17	=17	=17
.	.	.	2e\	-son	2r	.	2ee\	-son
.	.	.	2e\	e-	2g\	e-	2ee\	e-
=18	=18	=18	=18	=18	=18	=18	=18	=18
.	.	.	2e\	-le-	2g\	-le-	2ee\	-le-
!	!	!	!	!	!	!	!LO:TX:a:t=V&colon; S&colon;	!
.	.	.	2d\	-i-	2f\	-i-	2dd\	-i,-
!	!	!	!	!	!	!	!LO:PB:g=original	!
=19	=19	=19	=19	=19	=19	=19	=19	=19
.	.	.	2c\	-son	2e\	-son	2cc\	-son
.	.	.	2G/	e-	2e\	e-	2cc\	e-
=20	=20	=20	=20	=20	=20	=20	=20	=20
1r	.	.	2g\	-le-	2e\	-le-	2cc\	-le-
.	.	.	2f\	-i-	2d\	-i-	2b\	-i-
!LO:LB:g=original	!	!	!	!	!	!	!	!
=21	=21	=21	=21	=21	=21	=21	=21	=21
2r	.	.	2e\	-son	2c\	-son	2g\	-son
2GG/	e-	.	2e\	e-	2c\	e-	2g\	e-
=22	=22	=22	=22	=22	=22	=22	=22	=22
2G\	-le-	.	2e\	-le-	2c\	-le-	1g	-lei-
2F\	-i-	.	2d\	-i-	2B/	-i-	.	.
=23	=23	=23	=23	=23	=23	=23	=23	=23
2E\	-son	.	2e\	-son	2c\	-son	2g\	-son
2C/	e-	.	2c\	e-	2g\	e-	2g\	e-
!	!	!	!	!	!LO:LB:g=original	!	!	!
=24	=24	=24	=24	=24	=24	=24	=24	=24
(2F\	-le-	.	1c	-le-	1f	-le-	1a	-le-
2A\	.	.	.	.	.	.	.	.
=25	=25	=25	=25	=25	=25	=25	=25	=25
2G\	.	.	1d	.	1g	.	1b	.
2B\	.	.	.	.	.	.	.	.
=26	=26	=26	=26	=26	=26	=26	=26	=26
4c\	.	.	1G	i-	1e	.	1cc	.
4G\)	.	.	.	.	.	.	.	.
(4E\	-i-	.	.	.	.	.	.	.
4C/)	.	.	.	.	.	.	.	.
!	!	!	!LO:LB:g=original	!	!	!	!	!
=27	=27	=27	=27	=27	=27	=27	=27	=27
2G\	-son	.	2B\	-son	1g	-i-	1dd	-i-
2G\	Ky-	.	2B\	e-	.	.	.	.
=28	=28	=28	=28	=28	=28	=28	=28	=28
2c\	-ri-	.	1G	-le-	2g\	-son	2ee\	-son
4B\	-e	.	.	.	(4g\	e-	(4dd\	e-
4c\	e-	.	.	.	8f\L	.	4cc\)	.
.	.	.	.	.	8e\J)	.	.	.
!	!	!	!	!	!	!	!LO:LB:g=original	!
=29	=29	=29	=29	=29	=29	=29	=29	=29
1G	-lei-	.	1G	-i-	2e\	-le-	2cc\	-le-
.	.	.	.	.	2d\	-i-	2b\	-i-
!LO:LB:g=original	!	!	!	!	!	!	!	!
=30	=30	=30	=30	=30	=30	=30	=30	=30
*^	*	*	*	*	*	*	*	*
2C/	2ryy	-son	.	2G/	-son	2e\	-son	2cc\	-son
2c\	2r	e-	.	2c\	e-	2g\	e-	2ee\	e-
*v	*v	*	*	*	*	*	*	*	*
=31	=31	=31	=31	=31	=31	=31	=31	=31
2B\	-le-	.	2B\	-le-	1g	-lei-	2dd\	-le-
2d\	-i-	.	2d\	-i-	.	.	2ff\	-i-
=32	=32	=32	=32	=32	=32	=32	=32	=32
2c\	-son	.	2c\	-son	2g\	-son	2ee\	-son
!LO:TX:a:t=P:problem=ozn. dynamiki zapisane na pięciolinii	!	!LO:DY:b	!	!	!	!	!	!
2C/	e-	f	2c\	e-	2g\	e-	2ee\	e-
=33	=33	=33	=33	=33	=33	=33	=33	=33
1G	-lei-	.	2c\	-le-	1g	-lei-	1dd	-lei-
.	.	.	2B\	-i-	.	.	.	.
=34	=34	=34	=34	=34	=34	=34	=34	=34
1C	-son	.	1c	-son.	1g	-son.	1ee	-son.
!	!	!	!LO:LB:g=original	!	!LO:LB:g=original	!	!LO:LB:g=original	!
==35	==35	==35	==35	==35	==35	==35	==35	==35
*M4/4	*	*	*M4/4	*	*M4/4	*	*M4/4	*
*met(c)	*	*	*met(c)	*	*met(c)	*	*met(c)	*
!	!	!	!	!	!LO:TX:t=P:problem=alla breve	!	!	!
!LO:TX:a:t=solo.	!	!LO:DY:b:t=p.	!	!	!LO:TX:a:t=2.	!	!LO:TX:a:t=Christe	!
1G	Chri-	p	1g	Chri-	0r	.	1gg	.
=36	=36	=36	=36	=36	=36	=36	=36	=36
2E\	-ste	.	2e\	-ste	.	.	2ee\	-ste
2C/	e-	.	2c\	e-	.	.	2cc\	e-
=37	=37	=37	=37	=37	=37	=37	=37	=37
1BB	-lei-	.	1B	-lei-	1g	Chri-	1b	-lei-
=38	=38	=38	=38	=38	=38	=38	=38	=38
2C/	-son	.	(2c\	-son	2e\	-ste	2cc\	-son
2E\	e-	.	2e\)	.	2c\	e-	2ee\	e-
=39	=39	=39	=39	=39	=39	=39	=39	=39
1D	-lei-	.	1g	Chri-	1B	-lei-	1dd	-lei-
!LO:LB:g=original	!	!	!	!	!	!	!	!
=40	=40	=40	=40	=40	=40	=40	=40	=40
2E\	-son	.	2e\	-ste	2c\	-son	2ee\	-son
2r	.	.	2c\	e-	2e\	e-	2g\	e-
=41	=41	=41	=41	=41	=41	=41	=41	=41
!	!	!LO:DY:b:t=f.	!	!	!	!	!	!
1G	Chri-	f	1B	-lei-	1d	-lei-	1g	-lei-
=42	=42	=42	=42	=42	=42	=42	=42	=42
2E\	-ste	.	2c\	-son	2c\	-son	1g	-son
2C/	e-	.	2e\	e-	2g\	e-	.	.
!	!	!	!	!	!	!	!LO:LB:g=original	!
=43	=43	=43	=43	=43	=43	=43	=43	=43
!	!	!	!	!	!	!	!LO:TX:a:t=2.	!
1BB	-lei-	.	1d	-lei-	1g	-lei-	0r	.
=44	=44	=44	=44	=44	=44	=44	=44	=44
2C/	-son	.	2e\	-son	2g\	-son	.	.
2C/	e-	.	2e\	e-	2g\	e-	.	.
!	!	!	!	!	!LO:LB:g=original	!	!	!
=45	=45	=45	=45	=45	=45	=45	=45	=45
2E\	-le-	.	2c\	-le-	2g\	-le-	2r	.
!	!	!	!LO:TX:a:t=V&colon; S&colon;	!	!	!	!	!
2G\	-i-	.	2c\	-i-	2e\	-i-	2b-X\	Chri-
!	!	!	!LO:PB:g=original	!	!	!	!	!
=46	=46	=46	=46	=46	=46	=46	=46	=46
(4F\	-son	.	1c	-son	1f	-son	(4a\	-ste
4G\)	.	.	.	.	.	.	4b-X\)	.
(4A\	e-	.	.	.	.	.	(4cc\	e-
4F\)	.	.	.	.	.	.	4a\)	.
=47	=47	=47	=47	=47	=47	=47	=47	=47
(4E\	-le-	.	1c	e-	(4g\	Chri-	(4g\	-le-
4F\)	.	.	.	.	4f\)	.	4a\)	.
(4G\	-i-	.	.	.	4e\	-ste	(4b-X\	-i-
4E\)	.	.	.	.	4g\	e-	4g\)	.
=48	=48	=48	=48	=48	=48	=48	=48	=48
2F\	-son	.	(2c\	-le-	2f\	-le-	2a\	-son
2F#X\	chri-	.	2d\)	.	2d\	i-	2a\	Chri-
!LO:LB:g=original	!	!	!	!	!	!	!	!
=49	=49	=49	=49	=49	=49	=49	=49	=49
(4G\	-ste	.	1d	-i-	1g	-son	(4bn\	-ste
4A\)	.	.	.	.	.	.	4cc\)	.
(4B\	e-	.	.	.	.	.	(4dd\	e-
4G\)	.	.	.	.	.	.	4b\)	.
=50	=50	=50	=50	=50	=50	=50	=50	=50
(4F#X\	-le-	.	1A	-son	1f#X	e-	(4a\	-le-
4G\)	.	.	.	.	.	.	4b\)	.
(4A\	-i-	.	.	.	.	.	(4cc\	-i-
4F#\)	.	.	.	.	.	.	4a\)	.
!	!	!	!	!	!	!	!LO:LB:g=original	!
=51	=51	=51	=51	=51	=51	=51	=51	=51
2G\	-son	.	1d	Chri-	2g\	-le-	2b\	-son
2G\	chri-	.	.	.	2g\	-i-	2b\	Chri-
=52	=52	=52	=52	=52	=52	=52	=52	=52
2A\	-ste	.	(2c\	-ste	2f#X\	-son	2cc\	-ste
2B\	e-	.	2B\)	.	2fn\	e-	2dd\	e-
!	!	!	!	!	!LO:LB:g=original	!	!	!
=53	=53	=53	=53	=53	=53	=53	=53	=53
(4c\	-le-	.	1c	e-	1g	-le-	1ee	-lei-
4G\)	.	.	.	.	.	.	.	.
(4E\	-i-	.	.	.	.	.	.	.
4C/)	.	.	.	.	.	.	.	.
=54	=54	=54	=54	=54	=54	=54	=54	=54
2G\	-son	.	2B\	-le-	2f\	.	2dd\	-son
2C/	e-	.	2G/	.	2e\	.	2cc\	e-
=55	=55	=55	=55	=55	=55	=55	=55	=55
2GG/	-le-	.	1G	.	2d\	.	(2b\	-le-
2C/	.	.	.	.	2e\	.	2cc\)	.
=56	=56	=56	=56	=56	=56	=56	=56	=56
1G	-i-	.	1G	-i-	2e\	.	(2cc\	-i-
.	.	.	.	.	2d\	-i-	2b\)	.
=57	=57	=57	=57	=57	=57	=57	=57	=57
!	!	!	!LO:TX:a:t=Kyrie da Capo.	!	!	!	!LO:TX:a:t=Kyrie Da Capo.	!
1C	-son.	.	1G	-son.	1e	-son.	1cc	-son.
!LO:LB:g=original	!	!	!LO:LB:g=original	!	!LO:LB:g=original	!	!LO:LB:g=original	!
==58	==58	==58	==58	==58	==58	==58	==58	==58
*M2/2	*	*	*M2/2	*	*M2/2	*	*M2/2	*
*met(c|)	*	*	*met(c|)	*	*met(c|)	*	*met(c|)	*
!LO:TX:a:t=P:global:problem=metrum C przekreślone z kropką w środku	!	!	!	!	!LO:TX:t=P:problem=alla breve	!	!	!
2c\	Ky-	.	2c\yy	Ky-	2g\	Ky-	2ee\yy	Ky-
2G\	-ri-	.	2B\yy	-ri-	2f\	-ri-	2dd\yy	-ri-
=59	=59	=59	=59	=59	=59	=59	=59	=59
2C/	-e	.	2G/yy	-e	2e\	-e	2cc\yy	-e
(4G\	e-	.	(4B\yy	e-	(4f\	e-	(4dd\yy	e-
4C/)	.	.	4c\)yy	.	4g\)	.	4ee\)yy	.
=60	=60	=60	=60	=60	=60	=60	=60	=60
1G	-lei-	.	2B\yy	-le-	2f\	-le-	2dd\yy	-le-
.	.	.	2G/yy	-i-	2d\	-i-	2b\yy	-i-
=61	=61	=61	=61	=61	=61	=61	=61	=61
4C/	-son	.	4G/yy	-son	4e\	-son	4cc\yy	-son
4C/	e-	.	4G/yy	e-	4e\	e-	4cc\yy	e-
4BB/	-le-	.	2G/yy	-lei-	4d\	-le-	4b\yy	-le-
4C/	-i-	.	.	.	4e\	-i-	4cc\yy	-i-
=62	=62	=62	=62	=62	=62	=62	=62	=62
2G\	-son	.	2B\yy	-son	2f\	-son	2dd\yy	-son
!	!	!LO:DY:b	!	!	!	!	!	!
4G\	Ky-	f	4B\yy	Ky-	4g\	Ky-	4dd\yy	Ky-
4G\	-ri-	.	4B\yy	-ri-	4g\	-ri-	4dd\yy	-ri-
=63	=63	=63	=63	=63	=63	=63	=63	=63
2c\	-e	.	2c\yy	-e	2g\	-e	2ee\yy	-e
(4G\	e-	.	(4B\yy	e-	(4f\	e-	(4dd\yy	e-
!	!	!	!	!	!LO:TX:a:t=V&colon; S&colon;	!	!	!
4E\)	.	.	4c\)yy	.	4e\)	.	4cc\)yy	.
!	!	!	!	!	!LO:PB:g=original	!	!LO:LB:g=original	!
=64	=64	=64	=64	=64	=64	=64	=64	=64
[1G	-le-	.	1Gyy	-le-	(2d\	-le-	(2b\yy	-le-
.	.	.	.	.	2e\)	.	2cc\yy	.
=65	=65	=65	=65	=65	=65	=65	=65	=65
2G\]	.	.	1dyy	-i-	(2d\	-i-	2b\)yy	.
2D\	-i-	.	.	.	2c\)	.	2a\yy	-i-
!LO:LB:g=original	!	!	!	!	!	!	!	!
=66	=66	=66	=66	=66	=66	=66	=66	=66
2GG/	-son.	.	2d\yy	-son	2B/	-son	2g\yy	-son
!	!	!LO:DY:b:t=p.	!	!	!	!	!	!
2GG/	e-	p	2G/yy	e-	2r	.	2g\yy	e-
!	!	!	!LO:LB:g=original	!	!	!	!	!
=67	=67	=67	=67	=67	=67	=67	=67	=67
!	!	!	!	!	!LO:TX:b:t=1	!	!	!
2G\	-le-	.	2g\yy	-le-	1r	.	2gg\yy	-le-
2F\	-i-	.	2f\yy	-i-	.	.	2ff\yy	-i-
=68	=68	=68	=68	=68	=68	=68	=68	=68
2E\	-son	.	2e\yy	-son	2r	.	2ee\yy	-son
2E\	e-	.	2e\yy	e-	2g\	e-	2ee\yy	e-
=69	=69	=69	=69	=69	=69	=69	=69	=69
2E\	-le-	.	2e\yy	-le-	2g\	-le-	2ee\yy	-le-
!	!	!	!	!	!	!	!LO:TX:a:t=V&colon; S&colon;	!
2D\	-i-	.	2d\yy	-i-	2f\	-i-	2dd\yy	-i,-
!	!	!	!	!	!	!	!LO:PB:g=original	!
=70	=70	=70	=70	=70	=70	=70	=70	=70
2C/	-son	.	2c\yy	-son	2e\	-son	2cc\yy	-son
2C/	e-	.	2G/yy	e-	2e\	e-	2cc\yy	e-
!	!	!	!	!	!LO:LB:g=original	!	!	!
=71	=71	=71	=71	=71	=71	=71	=71	=71
2C/	-le-	.	2g\yy	-le-	2e\	-le-	2cc\yy	-le-
2BB/	-i-	.	2f\yy	-i-	2d\	-i-	2b\yy	-i-
=72	=72	=72	=72	=72	=72	=72	=72	=72
2GG/	-son	.	2e\yy	-son	2c\	-son	2g\yy	-son
!	!	!LO:DY:b:t=f.	!	!	!	!	!	!
2GG/	e-	f	2e\yy	e-	2c\	e-	2g\yy	e-
=73	=73	=73	=73	=73	=73	=73	=73	=73
2G\	-le-	.	2e\yy	-le-	2c\	-le-	1gyy	-lei-
2F\	-i-	.	2d\yy	-i-	2B/	-i-	.	.
=74	=74	=74	=74	=74	=74	=74	=74	=74
2E\	-son	.	2e\yy	-son	2c\	-son	2g\yy	-son
2C/	e-	.	2c\yy	e-	2g\	e-	2g\yy	e-
=75	=75	=75	=75	=75	=75	=75	=75	=75
(2F\	-le-	.	1cyy	-le-	1f	-le-	1ayy	-le-
2A\	.	.	.	.	.	.	.	.
!LO:LB:g=original	!	!	!	!	!	!	!	!
=76	=76	=76	=76	=76	=76	=76	=76	=76
2G\	.	.	1dyy	.	1g	.	1byy	.
2B\	.	.	.	.	.	.	.	.
=77	=77	=77	=77	=77	=77	=77	=77	=77
4c\	.	.	1Gyy	i-	1e	.	1ccyy	.
4G\)	.	.	.	.	.	.	.	.
4E\	-i-	.	.	.	.	.	.	.
4C/	.	.	.	.	.	.	.	.
!	!	!	!LO:LB:g=original	!	!	!	!	!
=78	=78	=78	=78	=78	=78	=78	=78	=78
2G\	-son	.	2B\yy	-son	1g	-i-	1ddyy	-i-
2G\	Ky-	.	2B\yy	e-	.	.	.	.
=79	=79	=79	=79	=79	=79	=79	=79	=79
2c\	-ri-	.	1Gyy	-le-	2g\	-son	2ee\yy	-son
4B\	-e	.	.	.	(4g\	e-	(4dd\yy	e-
4c\	e-	.	.	.	8f\L	.	4cc\)yy	.
.	.	.	.	.	8e\J)	.	.	.
!	!	!	!	!	!	!	!LO:LB:g=original	!
=80	=80	=80	=80	=80	=80	=80	=80	=80
1G	-lei-	.	1Gyy	-i-	2e\	-le-	2cc\yy	-le-
.	.	.	.	.	2d\	-i-	2b\yy	-i-
=81	=81	=81	=81	=81	=81	=81	=81	=81
2C/	-son	.	2G/yy	-son	2e\	-son	2cc\yy	-son
2E\	e-	.	2c\yy	e-	2g\	e-	2ee\yy	e-
=82	=82	=82	=82	=82	=82	=82	=82	=82
2D\	-le-	.	2B\yy	-le-	1g	-lei-	2dd\yy	-le-
2F\	-i-	.	2d\yy	-i-	.	.	2ff\yy	-i-
!	!	!	!	!	!LO:LB:g=original	!	!	!
=83	=83	=83	=83	=83	=83	=83	=83	=83
2E\	-son	.	2c\yy	-son	2g\	-son	2ee\yy	-son
2C/	e-	.	2c\yy	e-	2g\	e-	2ee\yy	e-
=84	=84	=84	=84	=84	=84	=84	=84	=84
1G	-lei-	.	2c\yy	-le-	1g	-lei-	1ddyy	-lei-
.	.	.	2B\yy	-i-	.	.	.	.
=85	=85	=85	=85	=85	=85	=85	=85	=85
1C	-son.	.	1cyy	-son.	1g	-son.	1eeyy	-son.
==	==	==	==	==	==	==	==	==
*-	*-	*-	*-	*-	*-	*-	*-	*-
!!!system-decoration: [(g1)]
!!!RDF**kern: >= above
!!!RDF**kern: <= below
!!!ENC: Anna Matuszewska
!!!END: 2021-02-02
!!!ENC: Krzysztof Stępień
!!!END: 2021-01-28
!!!YEC: Copyright 2022 Narodowy Instytut Fryderyka Chopina (https://polishscores.org)
!!!YEM: License CC-BY-4.0 (https://creativecommons.org/licenses/by/4.0)
